img/sprite/gradient/card-software.svg

<svg width="48" height="48" viewBox="0 0 48 48" fill="none" xmlns="http://www.w3.org/2000/svg">
<g clip-path="url(#clip0_84_3463)">
<path d="M45.835 7.875H36C35.6115 7.875 35.2969 8.18958 35.2969 8.57812C35.2969 8.96667 35.6115 9.28125 36 9.28125H45.835C46.2535 9.28125 46.5938 9.62146 46.5938 10.04V37.1162C46.5938 37.5348 46.2535 37.875 45.835 37.875H2.16504C1.74646 37.875 1.40625 37.5348 1.40625 37.1162V10.04C1.40625 9.62146 1.74646 9.28125 2.16504 9.28125H17.6133V10.6875H3.51562C3.12708 10.6875 2.8125 11.0021 2.8125 11.3906V29.9689C2.8125 30.3571 3.12708 30.672 3.51562 30.672C3.90417 30.672 4.21875 30.3571 4.21875 29.9689V12.0938H17.6133V15.8657L14.603 17.3038C14.3628 17.4188 14.2031 17.6671 14.2031 17.9385V29.4053C14.2031 29.6763 14.3588 29.9231 14.603 30.0399L23.6968 34.3846C23.8938 34.4773 24.1161 34.4725 24.3032 34.3846L29.4155 31.942C29.766 31.7747 29.9143 31.3546 29.7469 31.0045C29.5796 30.6541 29.1592 30.5057 28.8091 30.6731L24.7031 32.6349V22.7263L32.3906 19.0536V28.9622L31.3462 29.4609C30.9957 29.6283 30.8474 30.0483 31.0148 30.3984C31.1821 30.7489 31.6022 30.8972 31.9523 30.7299L33.397 30.0399C33.6412 29.9231 33.7969 29.6763 33.7969 29.4053V17.9385C33.7969 17.6704 33.6409 17.4207 33.397 17.3038L30.3867 15.8657V12.0938H43.7812V35.0625H4.21875V32.9689C4.21875 32.5803 3.90417 32.2657 3.51562 32.2657C3.12708 32.2657 2.8125 32.5803 2.8125 32.9689V35.7656C2.8125 36.1542 3.12708 36.4688 3.51562 36.4688H44.4844C44.8729 36.4688 45.1875 36.1542 45.1875 35.7656V11.3906C45.1875 11.0021 44.8729 10.6875 44.4844 10.6875H30.3867V9.28125H33C33.3885 9.28125 33.7031 8.96667 33.7031 8.57812C33.7031 8.18958 33.3885 7.875 33 7.875H30.3867V6.46875H36.6914C37.08 6.46875 37.3945 6.15417 37.3945 5.76562V4.0979C38.213 3.8075 38.8008 3.026 38.8008 2.10938C38.8008 0.946289 37.8545 0 36.6914 0C35.5283 0 34.582 0.946289 34.582 2.10938C34.582 3.026 35.1698 3.8075 35.9883 4.0979V5.0625H29.6836C29.295 5.0625 28.9805 5.37708 28.9805 5.76562V7.875H24.7031V4.0979C25.5216 3.8075 26.1094 3.026 26.1094 2.10938C26.1094 0.946289 25.1631 0 24 0C22.8369 0 21.8906 0.946289 21.8906 2.10938C21.8906 3.026 22.4784 3.8075 23.2969 4.0979V7.875H19.0195V5.76562C19.0195 5.37708 18.705 5.0625 18.3164 5.0625H12.0117V4.0979C12.8302 3.8075 13.418 3.026 13.418 2.10938C13.418 0.946289 12.4717 0 11.3086 0C10.1455 0 9.19922 0.946289 9.19922 2.10938C9.19922 3.026 9.78699 3.8075 10.6055 4.0979V5.76562C10.6055 6.15417 10.92 6.46875 11.3086 6.46875H17.6133V7.875H2.16504C0.971191 7.875 0 8.84619 0 10.04V37.1162C0 38.3101 0.971191 39.2812 2.16504 39.2812H17.4089C17.1368 41.8605 15.4314 43.3667 14.8938 43.7812H11.9063C10.7432 43.7812 9.79688 44.7275 9.79688 45.8906C9.79688 47.0537 10.7432 48 11.9063 48H36.0938C37.2568 48 38.2031 47.0537 38.2031 45.8906C38.2031 44.7275 37.2568 43.7812 36.0938 43.7812H33.108C32.5774 43.3682 30.8661 41.8484 30.5918 39.2812H45.835C47.0288 39.2812 48 38.3101 48 37.1162V10.04C48 8.84619 47.0288 7.875 45.835 7.875ZM36.6914 1.40625C37.0792 1.40625 37.3945 1.72156 37.3945 2.10938C37.3945 2.49719 37.0792 2.8125 36.6914 2.8125C36.3036 2.8125 35.9883 2.49719 35.9883 2.10938C35.9883 1.72156 36.3036 1.40625 36.6914 1.40625ZM24 1.40625C24.3878 1.40625 24.7031 1.72156 24.7031 2.10938C24.7031 2.49719 24.3878 2.8125 24 2.8125C23.6122 2.8125 23.2969 2.49719 23.2969 2.10938C23.2969 1.72156 23.6122 1.40625 24 1.40625ZM11.3086 1.40625C11.6964 1.40625 12.0117 1.72156 12.0117 2.10938C12.0117 2.49719 11.6964 2.8125 11.3086 2.8125C10.9208 2.8125 10.6055 2.49719 10.6055 2.10938C10.6055 1.72156 10.9208 1.40625 11.3086 1.40625ZM19.0195 12.0938H23.2969V13.1503L19.0195 15.1941V12.0938ZM31.4626 17.9385L24 21.5035L16.5374 17.9385L24 14.373L31.4626 17.9385ZM15.6094 19.0536L23.2969 22.7263V32.6349L15.6094 28.9622V19.0536ZM28.9805 15.1941L24.7031 13.1503V12.0938H28.9805V15.1941ZM28.9805 9.28125V10.6875H24.7031V9.28125H28.9805ZM23.2969 9.28125V10.6875H19.0195V9.28125H23.2969ZM36.7969 45.8906C36.7969 46.2784 36.4816 46.5938 36.0938 46.5938H11.9063C11.5184 46.5938 11.2031 46.2784 11.2031 45.8906C11.2031 45.5028 11.5184 45.1875 11.9063 45.1875H36.0938C36.4816 45.1875 36.7969 45.5028 36.7969 45.8906ZM31.0913 43.7812H16.9087C17.733 42.8185 18.6475 41.3181 18.8229 39.2812H29.1771C29.3525 41.3181 30.267 42.8185 31.0913 43.7812Z" fill="url(#paint0_linear_84_3463)"/>
</g>
<defs>
<linearGradient id="paint0_linear_84_3463" x1="0" y1="24" x2="48" y2="24" gradientUnits="userSpaceOnUse">
<stop offset="0" stop-color="#0CBAF1"/>
<stop offset="1" stop-color="#E95CE9"/>
</linearGradient>
<clipPath id="clip0_84_3463">
<rect width="48" height="48" fill="white"/>
</clipPath>
</defs>
</svg>

<svg width="48" height="48" fill="none" xmlns="http://www.w3.org/2000/svg"><g clip-path="url(#a)"><path d="M45.835 7.875H36a.703.703 0 1 0 0 1.406h9.835a.76.76 0 0 1 .759.759v27.076a.76.76 0 0 1-.759.759H2.165a.76.76 0 0 1-.759-.759V10.04a.76.76 0 0 1 .759-.759h15.448v1.406H3.516a.703.703 0 0 0-.704.704v18.578a.703.703 0 1 0 1.407 0V12.094h13.394v3.772l-3.01 1.438a.708.708 0 0 0-.4.635v11.466c0 .271.156.518.4.635l9.094 4.345c.197.092.42.087.606 0l5.113-2.443a.703.703 0 1 0-.607-1.269l-4.106 1.962v-9.909l7.688-3.672v9.908l-1.045.499a.703.703 0 0 0 .606 1.269l1.445-.69a.704.704 0 0 0 .4-.635V17.94a.708.708 0 0 0-.4-.635l-3.01-1.438v-3.772H43.78v22.968H4.22V32.97a.703.703 0 1 0-1.407 0v2.797c0 .388.315.703.704.703h40.968a.703.703 0 0 0 .703-.703V11.39a.703.703 0 0 0-.703-.704H30.387V9.281H33a.703.703 0 1 0 0-1.406h-2.613V6.469h6.304a.703.703 0 0 0 .703-.703V4.098a2.113 2.113 0 0 0 1.407-1.989C38.8.946 37.854 0 36.69 0c-1.163 0-2.109.946-2.109 2.11 0 .916.588 1.698 1.406 1.988v.965h-6.304a.703.703 0 0 0-.704.703v2.109h-4.277V4.098a2.113 2.113 0 0 0 1.406-1.989C26.11.946 25.163 0 24 0s-2.11.946-2.11 2.11c0 .916.588 1.698 1.407 1.988v3.777H19.02v-2.11a.703.703 0 0 0-.704-.702h-6.304v-.965a2.113 2.113 0 0 0 1.406-1.989C13.418.946 12.472 0 11.308 0 10.147 0 9.2.946 9.2 2.11c0 .916.588 1.698 1.406 1.988v1.668c0 .388.315.703.704.703h6.304v1.406H2.165A2.167 2.167 0 0 0 0 10.04v27.076c0 1.194.971 2.165 2.165 2.165h15.244c-.272 2.58-1.978 4.086-2.515 4.5h-2.988c-1.163 0-2.11.947-2.11 2.11 0 1.163.947 2.109 2.11 2.109h24.188c1.163 0 2.11-.946 2.11-2.11 0-1.163-.947-2.109-2.11-2.109h-2.986c-.53-.413-2.242-1.933-2.516-4.5h15.243A2.167 2.167 0 0 0 48 37.116V10.04a2.167 2.167 0 0 0-2.165-2.165Zm-9.144-6.469a.704.704 0 1 1 0 1.408.704.704 0 0 1 0-1.408ZM24 1.406a.704.704 0 1 1-.001 1.408A.704.704 0 0 1 24 1.406Zm-12.691 0a.704.704 0 1 1-.002 1.408.704.704 0 0 1 .002-1.408Zm7.71 10.688h4.278v1.056l-4.277 2.044v-3.1Zm12.444 5.845L24 21.503l-7.463-3.564L24 14.373l7.463 3.566Zm-15.854 1.115 7.688 3.672v9.909l-7.688-3.673v-9.908Zm13.371-3.86-4.277-2.044v-1.056h4.277v3.1Zm0-5.913v1.406h-4.277V9.281h4.277Zm-5.683 0v1.406H19.02V9.281h4.277Zm13.5 36.61a.704.704 0 0 1-.703.703H11.906a.704.704 0 0 1 0-1.407h24.188c.388 0 .703.316.703.704Zm-5.706-2.11H16.91c.824-.962 1.739-2.463 1.914-4.5h10.354c.175 2.037 1.09 3.538 1.914 4.5Z" fill="url(#b)"/></g><defs><linearGradient id="b" x1="0" y1="24" x2="48" y2="24" gradientUnits="userSpaceOnUse"><stop offset="0" stop-color="#0CBAF1"/><stop offset="1" stop-color="#E95CE9"/></linearGradient><clipPath id="a"><path fill="#fff" d="M0 0h48v48H0z"/></clipPath></defs></svg>
